assets/img/spritemap.svg

<svg xmlns="http://www.w3.org/2000/svg" xmlns:xlink="http://www.w3.org/1999/xlink"><symbol fill="none" id="sprite-arrow" viewBox="0 0 25 15"><path d="M24.7071 8.07112C25.0976 7.6806 25.0976 7.04743 24.7071 6.65691L18.3431 0.292946C17.9526 -0.0975785 17.3195 -0.0975785 16.9289 0.292946C16.5384 0.68347 16.5384 1.31664 16.9289 1.70716L22.5858 7.36401L16.9289 13.0209C16.5384 13.4114 16.5384 14.0446 16.9289 14.4351C17.3195 14.8256 17.9526 14.8256 18.3431 14.4351L24.7071 8.07112ZM0 7.36401V8.36401H24V7.36401V6.36401H0V7.36401Z" fill="#1E1E1E"/></symbol><use xlink:href="#sprite-arrow" width="25" height="15" y="0"/><view id="sprite-arrow-view" viewBox="0 0 25 15"/><symbol fill="none" id="sprite-caretdown" viewBox="0 0 15 15"><path d="M12.685 6.12247L7.99747 10.81C7.93214 10.8755 7.85452 10.9275 7.76906 10.963C7.68359 10.9985 7.59196 11.0168 7.49942 11.0168C7.40688 11.0168 7.31525 10.9985 7.22978 10.963C7.14432 10.9275 7.0667 10.8755 7.00137 10.81L2.31387 6.12247C2.18178 5.99038 2.10757 5.81123 2.10757 5.62443C2.10757 5.43762 2.18178 5.25847 2.31387 5.12638C2.44596 4.99429 2.62512 4.92008 2.81192 4.92008C2.99872 4.92008 3.17788 4.99429 3.30997 5.12638L7.50001 9.31642L11.69 5.12579C11.8221 4.9937 12.0013 4.91949 12.1881 4.91949C12.3749 4.91949 12.554 4.9937 12.6861 5.12579C12.8182 5.25788 12.8924 5.43704 12.8924 5.62384C12.8924 5.81064 12.8182 5.9898 12.6861 6.12189L12.685 6.12247Z" fill="#1E1E1E"/></symbol><use xlink:href="#sprite-caretdown" width="15" height="15" y="15"/><view id="sprite-caretdown-view" viewBox="0 15 15 15"/><symbol fill="none" id="sprite-close" viewBox="0 0 21 21"><path d="M20.3535 0.353516L0.353516 20.3535" stroke="currentColor"/><path d="M0.353516 0.353516L20.3535 20.3535" stroke="currentColor"/></symbol><use xlink:href="#sprite-close" width="21" height="21" y="30"/><view id="sprite-close-view" viewBox="0 30 21 21"/><symbol fill="none" id="sprite-home" viewBox="0 0 18 18"><path d="M6.08333 16.75V10.6636C6.08333 10.1034 6.5609 9.64923 7.15 9.64923H10.35C10.9391 9.64923 11.4167 10.1034 11.4167 10.6636V16.75M8.13184 0.937708L1.19851 5.62647C0.917125 5.81676 0.75 6.1248 0.75 6.45316V15.2284C0.75 16.0688 1.46634 16.75 2.35 16.75H15.15C16.0337 16.75 16.75 16.0688 16.75 15.2284V6.45316C16.75 6.1248 16.5829 5.81676 16.3015 5.62647L9.36816 0.937709C8.99807 0.687431 8.50193 0.68743 8.13184 0.937708Z" stroke="currentColor" stroke-width="1.5" stroke-linecap="round"/></symbol><use xlink:href="#sprite-home" width="18" height="18" y="51"/><view id="sprite-home-view" viewBox="0 51 18 18"/><symbol fill="none" id="sprite-search" viewBox="0 0 21 21"><path d="M19.9399 18.348L15.4877 13.8939C16.8226 12.1544 17.4458 9.97216 17.2309 7.78998C17.0161 5.60781 15.9792 3.58907 14.3306 2.14328C12.6821 0.697486 10.5453 -0.0670986 8.35376 0.00462578C6.16221 0.0763502 4.07999 0.979013 2.5295 2.5295C0.979013 4.07999 0.0763502 6.16221 0.00462578 8.35376C-0.0670986 10.5453 0.697486 12.6821 2.14328 14.3306C3.58907 15.9792 5.60781 17.0161 7.78998 17.2309C9.97216 17.4458 12.1544 16.8226 13.8939 15.4877L18.3499 19.9445C18.4545 20.0492 18.5787 20.1322 18.7155 20.1888C18.8522 20.2455 18.9987 20.2746 19.1467 20.2746C19.2947 20.2746 19.4413 20.2455 19.578 20.1888C19.7147 20.1322 19.839 20.0492 19.9436 19.9445C20.0482 19.8399 20.1313 19.7157 20.1879 19.5789C20.2445 19.4422 20.2737 19.2957 20.2737 19.1477C20.2737 18.9997 20.2445 18.8531 20.1879 18.7164C20.1313 18.5797 20.0482 18.4554 19.9436 18.3508L19.9399 18.348ZM2.26891 8.64392C2.26891 7.38306 2.6428 6.15052 3.3433 5.10215C4.04379 4.05379 5.03943 3.23669 6.20431 2.75418C7.36919 2.27167 8.65099 2.14543 9.88762 2.39141C11.1242 2.63739 12.2602 3.24455 13.1517 4.13611C14.0433 5.02767 14.6504 6.16359 14.8964 7.40021C15.1424 8.63684 15.0162 9.91864 14.5336 11.0835C14.0511 12.2484 13.234 13.244 12.1857 13.9445C11.1373 14.645 9.90477 15.0189 8.64392 15.0189C6.95369 15.0172 5.3332 14.345 4.13803 13.1498C2.94286 11.9546 2.27065 10.3341 2.26891 8.64392Z" fill="#1E1E1E"/></symbol><use xlink:href="#sprite-search" width="21" height="21" y="69"/><view id="sprite-search-view" viewBox="0 69 21 21"/><symbol fill="none" id="sprite-separ" viewBox="0 0 12 20"><path d="M0.750127 18.3864L10.9325 0.750117" stroke="#666666" stroke-width="1.5" stroke-linecap="round"/></symbol><use xlink:href="#sprite-separ" width="12" height="20" y="90"/><view id="sprite-separ-view" viewBox="0 90 12 20"/></svg>

<svg xmlns="http://www.w3.org/2000/svg" xmlns:xlink="http://www.w3.org/1999/xlink"><symbol fill="none" id="sprite-arrow" viewBox="0 0 25 15"><path fill="#1E1E1E" d="M24.707 8.071a1 1 0 0 0 0-1.414L18.343.293a1 1 0 1 0-1.414 1.414l5.657 5.657-5.657 5.657a1 1 0 0 0 1.414 1.414zM0 7.364v1h24v-2H0z"/></symbol><use xlink:href="#sprite-arrow" width="25" height="15" y="0"/><view id="sprite-arrow-view" viewBox="0 0 25 15"/><symbol fill="none" id="sprite-caretdown" viewBox="0 0 15 15"><path fill="#1E1E1E" d="M12.685 6.122 7.997 10.81a.704.704 0 0 1-.996 0L2.314 6.122a.704.704 0 1 1 .996-.996l4.19 4.19 4.19-4.19a.704.704 0 0 1 .996.996z"/></symbol><use xlink:href="#sprite-caretdown" width="15" height="15" y="15"/><view id="sprite-caretdown-view" viewBox="0 15 15 15"/><symbol fill="none" id="sprite-close" viewBox="0 0 21 21"><path stroke="currentColor" d="m20.354.354-20 20M.354.354l20 20"/></symbol><use xlink:href="#sprite-close" width="21" height="21" y="30"/><view id="sprite-close-view" viewBox="0 30 21 21"/><symbol fill="none" id="sprite-home" viewBox="0 0 18 18"><path stroke="currentColor" stroke-linecap="round" stroke-width="1.5" d="M6.083 16.75v-6.086c0-.56.478-1.015 1.067-1.015h3.2c.59 0 1.067.454 1.067 1.015v6.086M8.132.938 1.199 5.626a1 1 0 0 0-.449.827v8.775c0 .84.716 1.522 1.6 1.522h12.8c.884 0 1.6-.681 1.6-1.522V6.453a1 1 0 0 0-.448-.827L9.368.938c-.37-.25-.866-.25-1.236 0Z"/></symbol><use xlink:href="#sprite-home" width="18" height="18" y="51"/><view id="sprite-home-view" viewBox="0 51 18 18"/><symbol fill="none" id="sprite-search" viewBox="0 0 21 21"><path fill="#1E1E1E" d="m19.94 18.348-4.452-4.454a8.636 8.636 0 1 0-1.594 1.594l4.456 4.457a1.124 1.124 0 0 0 1.594 0 1.126 1.126 0 0 0 0-1.594zM2.269 8.644a6.375 6.375 0 1 1 6.375 6.375 6.38 6.38 0 0 1-6.375-6.375"/></symbol><use xlink:href="#sprite-search" width="21" height="21" y="69"/><view id="sprite-search-view" viewBox="0 69 21 21"/><symbol fill="none" id="sprite-separ" viewBox="0 0 12 20"><path stroke="#666" stroke-linecap="round" stroke-width="1.5" d="M.75 18.386 10.932.75"/></symbol><use xlink:href="#sprite-separ" width="12" height="20" y="90"/><view id="sprite-separ-view" viewBox="0 90 12 20"/></svg>
